common/resources/fonts/svg/warning-alt.svg

<?xml version="1.0" encoding="UTF-8" standalone="no"?>
<svg width="1024px" height="1024px" viewBox="0 0 1024 1024" version="1.1" xmlns="http://www.w3.org/2000/svg" xmlns:xlink="http://www.w3.org/1999/xlink">
    <!-- Generator: Sketch 40.1 (33804) - http://www.bohemiancoding.com/sketch -->
    <title>warning-alt</title>
    <desc>Created with Sketch.</desc>
    <defs></defs>
    <g id="Page-1" stroke="none" stroke-width="1" fill="none" fill-rule="evenodd">
        <g id="warning-alt" fill="#2C2C2C">
            <path d="M512,952 C738.436747,952 922,768.436747 922,542 C922,315.563253 738.436747,132 512,132 C285.563253,132 102,315.563253 102,542 C102,768.436747 285.563253,952 512,952 Z M460.75,286.448864 L563.25,286.448864 L563.25,595.346591 L460.75,595.346591 L460.75,286.448864 Z M460.75,698.3125 L563.25,698.3125 L563.25,801.278409 L460.75,801.278409 L460.75,698.3125 Z" id="Combined-Shape"></path>
        </g>
    </g>
</svg>

<svg width="1024" height="1024" viewBox="0 0 1024 1024">
    <path d="M512 952c226.437 0 410-183.563 410-410S738.437 132 512 132 102 315.563 102 542s183.563 410 410 410zm-51.25-665.551h102.5v308.898h-102.5V286.449zm0 411.863h102.5v102.966h-102.5V698.312z" fill="#2C2C2C" fill-rule="evenodd"/>
</svg>
